X: 65
T: Hunting Song
C: Anon.
%%abc-version 2.0
%%abcx-abcm2ps-target-version 5.9.1 (29 Sep 2008)
%%abc-creator hum2abc beta
%%abcx-conversion-date 2020/08/10 20:56:09
%%abc-copyright Electronic Copyright 2000 David Huron
%%abc-edited-by David Huron
%%abcx-initial-encoding-date August 30, 2000
%%humdrum-veritas 2205512014
%%humdrum-veritas-data 2466797097
%%linebreak <none>
%%barnumbers 0
L: 1/8
M: 2/4
Q: 1/4=84
K: Ab clef=bass
F, F,- F, C,/ z/ | 
F,2F,2 | 
F, E,E,2 | 
B,> A,A,2 | 
F, F,z2 | 
F, F,F,2 | 
C2B, A, | 
B,2A,2 | 
F, F,z2 | 
F, F,F,2 | 
F, E,F,2 | 
B,2A,2 | 
F, F,z2[M:5/8] | 
F,2F,2C[M:3/4] | 
B,2C B,A,2[M:2/4] | 
F, F,z2 ]|:  
F, F,F,2 [I:setbarnb 18]| 
F, E,E,2 | 
B,2A,2 | 
F, F,z2 | 
F, F,F,2 | 
C2B, A, | 
B,2A,2 | 
F,2E, C, | 
F, F,F,2 | 
F, E, E, z | 
B,2A,2 | 
F, F,z2[M:5/8] :||:  
F,2F,2C[M:3/4] [I:setbarnb 30]| 
B,2C B,A,2[M:2/4] | 
F, F,z2 | 
F, F,F,2 | 
F, E,E,2 | 
B,2A,2 | 
F, F,z2 | 
F, F,F,2 | 
F, E,E,2 | 
B,2A,2 | 
F, F,z2 | 
F, F,F,2 :||:  
C2B, A, [I:setbarnb 42]| 
B,2A,2 | 
F,2E, C, | 
F, F,F,2 | 
F, E,E,2 | 
B,2A,2 | 
F, F,z2 | 
F, F,F,2 | 
F, E,E,2 | 
B,2A,2 | 
F, F, F, z | 
F, F,F,2 :|]  
[M:5/8]F,2F,2C[M:3/4] [I:setbarnb 54]| 
B,2C B,A,2[M:2/4] | 
F, F,z2 | 
F,2F,2C[M:3/4] | 
B, z A, F,A,2[M:2/4] | 
F, F,z2 | 
F, F,F,2 | 
F, E, E, z | 
B,2A,2 | 
F, F,z2 | 
F, F,F,2 |]  


